!!!!SEGMENT: pl-wtm--r-2309--001_troschel-wilhelm--msza-kyrie.krn
!!!cenid: 18xx:2268
!!!COM: Troschel, Wilhelm
!!!COM-rismid: pe30024099
!!!CDT: 1823/08/23-1887/03/02
!!!CNT: Polish
!!!OPR: Msza
!!!OTL: Kyrie
!!!OMV: 001
!!!PDT: 1853
!!!AGN: Sacred; Mass
!!!SMS-siglum: PL-Wtm
!!!SMS-shelfmark: R 2309
!!!SMS-shelfwork: 001-001 M
!!!SMS-variant:
!!!SMS-altvar:
!!!NIFC-rismid: 1001114147
!!!URL-scan: http://repozytorium.nifc.pl/skany/pl-wtm-nut--r2309
!!!ONB-nifc: UWAGA: części Mszy: 1. Kyrie, 2. Gloria, 3. Credo, 4. Benedictus, 5. Agnus Dei
!!!OMD: Moderato
!!!AIN: 1 forte
!!!key:
**kern	**kern	**dynam
*part1	*part1	*part1
*staff2	*staff1	*
*Iforte	*Iforte	*
*I"[fp.]	*I"[fp.]	*
*clefF4	*clefG2	*
*k[f#c#]	*k[f#c#]	*
*D:	*D:	*
*M4/4	*M4/4	*
*met(c)	*met(c)	*
!!LO:TX:t=P:problem:all\right or left:global
=1	=1	=1
*all\right	*all\right	*
*^	*^	*
*	*2\right	*	*2\right	*
*ped	*	*	*	*
!	!	!LO:TX:a:t=Organ	!	!
1A	2D\	2f#/	2d\	f
.	2C#\	2a/	2e\	.
*v	*v	*	*	*
=2	=2	=2	=2
2BB\ 2B	2f#/ 2dd	2d\	.
2r	2r	2ryy	.
*	*v	*v	*
=3	=3	=3
*^	*	*
1F#	2BB\	2B/ 2d	.
.	2AA\	2c#/ 2f#	.
*v	*v	*	*
=4	=4	=4
2GG\ 2G	2B/ 2d 2b	.
2r	2r	.
=5	=5	=5
*	*^	*
*	*	*^	*
4EE/ 4E	2.b/	2c#\	4g/	.
4EE#X/ 4E#X	.	.	4g#X/	.
2FF#/ 2F#	.	2c#\	2f#/	.
.	4a#X/	.	.	.
*	*	*v	*v	*
=6	=6	=6	=6
*^	*	*	*
4F#/	2BB\	2.an/	4c#\	.
4B/	.	.	2d#X\	.
4cn/	2E\	.	.	.
4B/	.	4g/	4e\	.
=7	=7	=7	=7	=7
4B-X/	4D\	2e/ 2g	2ryy	.
2A/	4C#\	.	.	.
.	4D\	4f#/	2d\	.
4GG#X/ 4Fn	4ryy	4b/	.	.
=8	=8	=8	=8	=8
4F#/	2AA\	2a/	4d\	.
4G/	.	.	4c#\	.
4F#/	4D\	4d/	4d\	.
4r	8AA\L	4r	4ryy	.
.	8FF#\J	.	.	.
*v	*v	*	*	*
!!LO:LB:g=original
=9	=9	=9	=9
!	!LO:TX:a:t=Chór	!	!LO:DY:rj
4.DD\ 4.D 4.d	4.dd/	4.f#\	p
8D\ 8d	8dd/	8f#\	.
4D\ 4d	4dd/	4f#\	.
4F#\ 4d	4dd/	4a\	.
=10	=10	=10	=10
*^	*	*	*
2A\ 2e	2ryy	2dd/	2a\	.
2e/	4A\	2cc#/	4a\	.
.	4A#X\	.	4g\	.
=11	=11	=11	=11	=11
2e/	2B\	2cc#/	2f#\	.
4d/	4B\	4b/	4f#\	.
4d/	4B\	4b/	4f#\	.
*v	*v	*	*	*
=12	=12	=12	=12
2F#\ 2c#	2b/	2f#\	.
4F#\ 4c#	4a/	4f#\	.
4F#\ 4c#	4a/	4f#\	.
=13	=13	=13	=13
*^	*	*	*
2c#/	2.A\	2a/	2.g\	.
4d/	.	4b/	.	.
4e/	4A\	4cc#/	4g\	.
=14	=14	=14	=14	=14
2D\ 2d	2ryy	2dd/	2f#\	.
4f#/	4B\	4dd/	4b\	.
4f#/	4B\	4dd/	4a\	.
=15	=15	=15	=15	=15
2.e/	1E	2.dd/	4a\	.
.	.	.	4g#X\	.
.	.	.	4f#\	.
4d/	.	4b/	4g#\	.
!!LO:LB:g=original
=16	=16	=16	=16	=16
2c#/	2A\	2a/	2a\	.
!	!	!LO:TX:a:t=Organ	!	!
4d/	2A\	4b/	2g\	.
4e/	.	4cc#/	.	.
=17	=17	=17	=17	=17
*ped	*	*	*	*
!	!	!LO:TX:a:t=Chór	!	!LO:DY:rj
4.D\ 4.d	2ryy	4.dd/	4.f#\	f
8D\ 8d	.	8dd/	8f#\	.
4d/	4D\	4dd/	4f#\	.
4d/	4F#\	4dd/	4a\	.
=18	=18	=18	=18	=18
2e/	2A\	4dd/	2a\	.
.	.	8cc#/L	.	.
.	.	8b/J	.	.
2e/	4A\	2cc#/	4a\	.
.	4A#X\	.	4g\	.
=19	=19	=19	=19	=19
2e/	2B\	2cc#/	2f#\	.
4d/	4B\	4b/	4f#\	.
4d/	4BB\	4b/	4f#\	.
=20	=20	=20	=20	=20
2c#/	2F#\	4b/	2f#\	.
.	.	8a/L	.	.
.	.	8g#X/J	.	.
4c#/	4F#\	4a/	4f#\	.
4c#/	4F#\	4a/	4f#\	.
=21	=21	=21	=21	=21
4c#/	4E\	2a/	4g\	.
4B#X/	4D#X\	.	4f#\	.
2c#/	4E\	2a/	4g\	.
.	4G\	.	4e\	.
=22	=22	=22	=22	=22
2f#/	4F#\	4a/	4d\	.
.	4A\	4ccn/	4f#\	.
4d/	4G\	4b/	4g\	.
4d/	4G#X\	4b/	4fn\	.
!!LO:LB:g=original
=23	=23	=23	=23	=23
4d/	1A	2a/	4f#X\	.
4f#/	.	.	4a\	.
4fn/	.	4b/	4g#X\	.
4e/	.	4cc#/	4gn\	.
=24	=24	=24	=24	=24
2d/	2D\	2dd/	2f#\	.
!	!	!LO:TX:a:t=Organ	!	!
4f#/	4B\	2b/ 2dd	2ryy	.
4fn/	8A\L	.	.	.
.	8G#X\J	.	.	.
=25	=25	=25	=25	=25
!	!	!LO:TX:a:t=Chór	!	!LO:DY:rj
4.e/	4.A\	4.cc#/	4.a\	p
8e/	8A\	8cc#/	8a\	.
4d#X/	4A\	4b#X/	4f#\	.
4dn/	4A\	4bn/	4g#X\	.
=26	=26	=26	=26	=26
2A\ 2c#	2ryy	2a/	2a\	.
2c#/	2A\	2e/	2e\	.
=27	=27	=27	=27	=27
2f#/	2F#\	2cc#/	2a\	.
4f#/	4F#\	4b/	4g#X\	.
4f#/	4F#\	4cc#/	4a\	.
=28	=28	=28	=28	=28
2f#/	2B\	2dd/	2b\	.
4f#/	4B\	4dd/	4b\	.
4fn/	4A\	4dd/	4b\	.
=29	=29	=29	=29	=29
2e/	2G#X\	2dd/	2b\	.
2e/	2A\	2cc#/	2a\	.
=30	=30	=30	=30	=30
2e#X/	2c#\	2b/	2g#X\	.
4f#/	4F#\	4a/	4f#\	.
4f#/	4D\	4b/ 4dd	4ryy	.
!!LO:LB:g=original
=31	=31	=31	=31	=31
2.e/	1E	2cc#/	2a\	.
.	.	2b/	2g#X\	.
4B/	.	.	.	.
=32	=32	=32	=32	=32
2.c#/	2AA\ 2A	2a/	2a\	.
.	2r	2r	2ryy	.
4d/	.	.	.	.
=33	=33	=33	=33	=33
4.e/	2r	4.b/	4.g#X\	.
8e/	.	8b/	8g#\	.
4e/	4r	4b/	4g#\	.
4e/	4A#X\	4cc#/	4gn\	.
=34	=34	=34	=34	=34
2d/	2B\	2dd/	2f#\	.
2d/	2B\	2dd/	2f#\	.
=35	=35	=35	=35	=35
2d/	2r	2a/	2.ryy	.
4d/	4r	4a/	.	.
4d/	4G#X\	4b/	4fn\	.
=36	=36	=36	=36	=36
2c#/	2A\	2cc#/	2e\	.
2e/	2A\	2cc#/	2gn\	.
=37	=37	=37	=37	=37
2fn/	2A-X\	2dd-X/	2a-X\	.
2g-X/	2A-\	4ccn/	2a-\	.
.	.	8b-X/L	.	.
.	.	8cc/J	.	.
=38	=38	=38	=38	=38
2fn/	2d-X\	2dd-X/	2a-X\	.
!LO:TX:b:t=Proszę aby ta Msza niebyła nigdy drukowaną, zasługuje tylko\n na spalenie, zachowałem ją jedynie dla tego aby się kiedyś\n naśmiać z tego znakomitego Arcydzieła.	!	!	!	!
2en/	4Bn\	4ddn/	4g#X\	.
!	!	!LO:SIC:v:s=4an	!	!
.	4A\	4cc#/	4a-\	.
!!LO:PB:g=original
=39	=39	=39	=39	=39
4f#/	2D\	2b/	2a\	.
4fn/	.	.	.	.
4e/	4E\	4b/	4g#X\	.
4d/	4E\	4b/	8f#\L	.
.	.	.	8g#\J	.
=40	=40	=40	=40	=40
2d/	2AA\ 2A	2a/	2a\	.
2e/	2AA\ 2A	2cc#/	2gn\	.
*v	*v	*	*	*
=41	=41	=41	=41
4.D\ 4.d	4.dd/	4.f#\	.
8D\ 8d	8dd/	8f#\	.
4F#\ 4d	4a/ 4dd	4ryy	.
4D\ 4d	4dd/	4f#\	.
=42	=42	=42	=42
*^	*	*	*
2A\ 2e	2ryy	2dd/	2a\	.
4e/	4A\	4cc#/	4a\	.
4e/	4A\	4cc#/	4a\	.
*v	*v	*	*	*
=43	=43	=43	=43
2A\ 2c#	2ee/	2g\	.
4A\ 4c#	4ee/	4g\	.
4A#X\ 4c#	4ee/	4g\	.
=44	=44	=44	=44
*^	*	*	*
2A#X\ 2c#	2ryy	2ee/	2g\	.
2d/	2B\	2dd/	2f#\	.
=45	=45	=45	=45	=45
2B\ 2d	2ryy	2dd/	2f#\	.
4d/	4A\	4cc#/	4f#\	.
4d/	4G\	4b/	4g\	.
=46	=46	=46	=46	=46
2f#/	2F#\	2a/	2a\	.
4d/	4G\	4cc#/	4a\	.
4d/	4G\	4b/	4g\	.
!!LO:LB:g=original
=47	=47	=47	=47	=47
2d/	1A	1a	2f#\	.
4c#/	.	.	4e\	.
!LO:N:vis=4	!	!	!	!
8d/	.	.	8f#\L	.
!LO:N:vis=4	!	!	!	!
8e/	.	.	8g\J	.
=48	=48	=48	=48	=48
4d/	4D\	4a/	4f#\	.
8.d/	4r	4rdd	4rd	.
16d/	.	.	.	.
4d/	4r	4rdd	4rd	.
4d/	4D\	4d/	4ryy	.
=49	=49	=49	=49	=49
2B/	2B\	2g/	2d\	.
4A/	4A\	4f#/	4d\	.
4A/ 4d	4A\	4f#/	4d\	.
=50	=50	=50	=50	=50
2d/	1G	1b	2e\	.
2c#/	.	.	2e#X\	.
=51	=51	=51	=51	=51
4c#/	4F#\	4a#X/	4f#\	.
4r	8.F#\	4rdd	4rd	.
.	16F#\	.	.	.
4r	4F#\	4rdd	4rd	.
4c#/	4F#\	4a#X/	4c#\	.
=52	=52	=52	=52	=52
2B#X/	1F#	2an/	2d#X\	.
2Bn/	.	2g#X/	2e#X\	.
=53	=53	=53	=53	=53
4A#X/	4F#\	4f#/	4f#\	.
8.c#/	4r	4rdd	4rd	.
16c#/	.	.	.	.
4c#/	4r	4rdd	4rd	.
4c#/	4F#\	4a#X/	4f#\	.
!!LO:LB:g=original
=54	=54	=54	=54	=54
2d#X/	1F#	1b	2f#\	.
2dn/	.	.	2e#X\	.
=55	=55	=55	=55	=55
4c#/	4F#\	4a#X/	4f#\	.
4rD	4rB	4r	8.f#\	.
.	.	.	16f#\	.
4rD	4rB	4r	4f#\	.
4F#/	4F#\	4f#/	4f#\	.
=56	=56	=56	=56	=56
1f#	2F#\	2cc#/	2an\	.
.	2B\	2ddn/	2b\	.
=57	=57	=57	=57	=57
4f#/	4F#\	4cc#/	4a\	.
4rD	4rB	8.a/	4r	.
.	.	.	.	.
.	.	16a/	.	.
4rD	4rB	4a/	4r	.
4A/	4A\	4a/	4a\	.
=58	=58	=58	=58	=58
2e/	1A	2cc#/	2a\	.
2fn/	.	2dd/	2g#X\	.
=59	=59	=59	=59	=59
1e	1A;<	1cc#;>	1a	.
=60	=60	=60	=60	=60
4.d/	4.D\	4.dd/	4.f#\	.
8d/	8D\	8dd/	8f#\	.
4d/	4D\	4dd/	4f#\	.
4d/	4F#\	4dd/	4a\	.
=61	=61	=61	=61	=61
2e/	2A\	4dd/	2a\	.
.	.	8cc#/L	.	.
.	.	8b/J	.	.
2e/	4A\	2cc#/	4a\	.
.	4A#X\	.	4g\	.
!!LO:LB:g=original
=62	=62	=62	=62	=62
2e/	2B\	2cc#/	2f#\	.
4d/	4B\	4b/	4f#\	.
4d/	4D\	4b/	4f#\	.
=63	=63	=63	=63	=63
2c#/	2F#\	4b/	2f#\	.
.	.	8a/L	.	.
.	.	8g#X/J	.	.
4c#/	4F#\	4a/	4f#\	.
4c#/	4F#\	4a/	4f#\	.
=64	=64	=64	=64	=64
4c#/	4E\	2a/	4g\	.
4B#X/	4D#X\	.	4f#\	.
2c#/	4E\	2a/	4g\	.
.	4G\	.	4e\	.
=65	=65	=65	=65	=65
2d/	4F#\	4a/	4d\	.
.	4A\	4ccn/	4f#\	.
4d/	4G\	4b/	4g\	.
4d/	4G#X\	4b/	4fn\	.
=66	=66	=66	=66	=66
4d/	1A	2a/	4f#X\	.
4f#/	.	.	4a\	.
4fn/	.	4b/	4g#X\	.
4e/	.	4cc#/	4gn\	.
=67	=67	=67	=67	=67
2d/	2D\	2dd/	2f#\	.
!	!	!LO:TX:a:i:t=Lento	!	!
2d/	2F#\	2ccn/	2a\	.
=68	=68	=68	=68	=68
1f#	2G\	2ccn/	2a\	.
.	2B-X\	2b-X/	2g\	.
=69	=69	=69	=69	=69
2d/	2d\	2a/	2f#\	.
2cn/	2D\	2a/	2f#\	.
=70	=70	=70	=70	=70
2B/	1D	2g#X/	2e#X\	.
2B-X/	.	2gn/	2en\	.
*	*	*v	*v	*
!!LO:LB:g=original
=71	=71	=71	=71
1A	1D;<	1d;> 1f#	.
=72	=72	=72	=72
!	!	!LO:TX:a:t=Organ	!
1D	4D\	2F#</ 2A< 2d	.
.	4Cn\	.	.
.	4BB\	4G</ 4d	.
!	!	!LO:TX:b:t=rall&colon;	!
.	4AA\	4B/ 4d 4g	.
=73	=73	=73	=73
*	*	*^	*
[>1A	[>1DD [>1D	4g/	[1d	.
.	.	8f#/L	.	.
.	.	8e/J	.	.
.	.	[2f#/	.	.
=74	=74	=74	=74	=74
2A/]	2DD;<\] 2D]	2f#;>/]	2d\]	.
2r	2ryy	2r	2ryy	.
*v	*v	*	*	*
*	*v	*v	*
==	==	==
*-	*-	*-
!!!system-decoration: {(s1,s2)}
!!!RDF**kern: < = below
!!!RDF**kern: > = above
!!!ENC: Marta Chmielewska
!!!END: 2021-06-08
!!!ENC: Anastazja Marusiak
!!!END: 2021-05-27
